public/img/AboutUs/cycles-4.svg

<svg width="142" height="126" viewBox="0 0 142 126" fill="none" xmlns="http://www.w3.org/2000/svg">
<path d="M26.2963 0C24.204 0 22.1975 0.829684 20.718 2.30653C19.2386 3.78338 18.4074 5.78642 18.4074 7.875H7.88889C5.79663 7.875 3.79006 8.70468 2.3106 10.1815C0.831149 11.6584 0 13.6614 0 15.75V73.5C0 75.5886 0.831149 77.5916 2.3106 79.0685C3.79006 80.5453 5.79663 81.375 7.88889 81.375H18.4074V126H28.9259V81.375H113.074V126H123.593V81.375H134.111C136.203 81.375 138.21 80.5453 139.689 79.0685C141.169 77.5916 142 75.5886 142 73.5V15.75C142 13.6614 141.169 11.6584 139.689 10.1815C138.21 8.70468 136.203 7.875 134.111 7.875H123.593C123.593 5.78642 122.761 3.78338 121.282 2.30653C119.803 0.829684 117.796 0 115.704 0C113.611 0 111.605 0.829684 110.125 2.30653C108.646 3.78338 107.815 5.78642 107.815 7.875H34.1852C34.1852 5.78642 33.354 3.78338 31.8746 2.30653C30.3951 0.829684 28.3886 0 26.2963 0ZM5.25926 31.3688L23.5352 13.125H50.0944L5.25926 57.8812V31.3688ZM13.0167 76.125L76.1278 13.125H102.687L39.5759 76.125H13.0167ZM128.72 13.125H134.111C134.809 13.125 135.477 13.4016 135.971 13.8938C136.464 14.3861 136.741 15.0538 136.741 15.75V31.6312L92.1685 76.125H65.6093L128.72 13.125ZM136.741 57.6188V73.5C136.741 74.1962 136.464 74.8639 135.971 75.3562C135.477 75.8484 134.809 76.125 134.111 76.125H118.202L136.741 57.6188Z" fill="white"/>
</svg>

<svg width="142" height="126" fill="none" xmlns="http://www.w3.org/2000/svg"><path d="M26.296 0c-2.092 0-4.098.83-5.578 2.307a7.868 7.868 0 0 0-2.31 5.568H7.887c-2.091 0-4.098.83-5.577 2.306A7.868 7.868 0 0 0 0 15.75V73.5c0 2.089.831 4.092 2.31 5.569a7.896 7.896 0 0 0 5.579 2.306h10.518V126h10.519V81.375h84.148V126h10.519V81.375h10.518c2.092 0 4.099-.83 5.578-2.306A7.866 7.866 0 0 0 142 73.5V15.75a7.866 7.866 0 0 0-2.311-5.569 7.895 7.895 0 0 0-5.578-2.306h-10.518a7.87 7.87 0 0 0-2.311-5.568 7.897 7.897 0 0 0-11.157 0 7.87 7.87 0 0 0-2.31 5.568h-73.63a7.868 7.868 0 0 0-2.31-5.568A7.896 7.896 0 0 0 26.296 0ZM5.26 31.369l18.276-18.244h26.56L5.258 57.881V31.37Zm7.758 44.756 63.11-63h26.56l-63.111 63h-26.56Zm115.703-63h5.391a2.623 2.623 0 0 1 2.63 2.625v15.881L92.168 76.125H65.61l63.111-63Zm8.021 44.494V73.5a2.623 2.623 0 0 1-2.63 2.625h-15.909l18.539-18.506Z" fill="#fff"/></svg>
